symbols/web/domain_verification/materialsymbolsrounded/domain_verification_wght100grad200fill1_20px.svg

<svg xmlns="http://www.w3.org/2000/svg" height="20" width="20"><path d="M3.958 16.208q-.791 0-1.333-.541-.542-.542-.542-1.334V5.667q0-.792.542-1.334.542-.541 1.333-.541h12.084q.791 0 1.333.541.542.542.542 1.334v8.666q0 .792-.542 1.334-.542.541-1.333.541Zm-.666-9.562h13.416v-.979q0-.292-.187-.479Q16.333 5 16.042 5H3.958q-.291 0-.479.188-.187.187-.187.479Zm5.854 5.25-1.458-1.479q-.188-.209-.396-.209-.209 0-.417.209-.208.208-.208.406 0 .198.187.406l1.604 1.604q.25.25.667.25.417 0 .667-.25l3.396-3.395q.187-.188.187-.407 0-.219-.187-.385-.188-.188-.396-.188-.209 0-.396.188Z"/></svg>

<svg xmlns="http://www.w3.org/2000/svg" height="20" width="20"><path d="M3.958 16.208Q3.167 16.208 2.625 15.667Q2.083 15.125 2.083 14.333V5.667Q2.083 4.875 2.625 4.333Q3.167 3.792 3.958 3.792H16.042Q16.833 3.792 17.375 4.333Q17.917 4.875 17.917 5.667V14.333Q17.917 15.125 17.375 15.667Q16.833 16.208 16.042 16.208ZM3.292 6.646H16.708V5.667Q16.708 5.375 16.521 5.188Q16.333 5 16.042 5H3.958Q3.667 5 3.479 5.188Q3.292 5.375 3.292 5.667ZM9.146 11.896 7.688 10.417Q7.5 10.208 7.292 10.208Q7.083 10.208 6.875 10.417Q6.667 10.625 6.667 10.823Q6.667 11.021 6.854 11.229L8.458 12.833Q8.708 13.083 9.125 13.083Q9.542 13.083 9.792 12.833L13.188 9.438Q13.375 9.25 13.375 9.031Q13.375 8.812 13.188 8.646Q13 8.458 12.792 8.458Q12.583 8.458 12.396 8.646Z"/></svg>
